X:1
T:Title
%%score 1 2 3 4
L:1/8
Q:1/4=144
M:2/2
K:F
V:1 treble nm="Superius"
V:2 treble nm="Altus"
V:3 treble-8 nm="Tenor"
V:4 bass nm="Bassus"
V:1
 c6 B2 A4 f4 | e2 e2 d2 c2 =B4 c4 | z2 c2 c4 A2 A2 B2 c2 | F2 G2 A4 c4 A4 | z4 F8 G4- | G4 A8 G4 | %6
w: Il e- stoit u-|ne re- li- gi- eu- se|De l'or- dre de l'A- vé|Ma- ri- a. Qui d'un|Pa- ter|_ _ e-|
 D2 D2 F2 E2 c4 B2 B2 | A2 A2 A2 A2 G4 G2 c2 | A6 A2 c2 c2 d4 | c4 c4 A4 G4 | ^F4 G4 A4 G4 | %11
w: stoit tant a- mou- reu- se, e-|stoit tant a- mou- reu- se, e|stoit tant a- mou- reu-|se Que son gent|corps a- vec le|
 c4 c4 c8 | d4 c2 B2 A4 z4 | z2 c2 =B2 c2 A2 B2 c4 | z8 z4 d4 | d2 d2 d4 d4 c2 B2 | %16
w: sien ly- a.|L'a- bes- se vint|de- man- der qu'il y a,|Lors|re- spon- di- rent l'un et|
 A4 G4 A2 G2 A4 | G4 c8 c4- | c2 =BA B4 c4 A4 | A4 F2 G2 A2 B2 c2 d2 | e2 f2 g6 f2 f4- | %21
w: l'au- tre, l'un et l'au-|tre: Le Pa-|* * * * ter et|l'A- vé _ _ _ _ _|_ _ _ _ _|
 f2 e2 d4 c8- | c8 c8 | c4 c4 d2 e2 f4 | z4 z2 c2 d2 e2 f2 F2 | A2 c2 c6 c2 c2 c2 | %26
w: * * * Ma-|­- ri-|a Sont en- fi- léz,|Sont en- fi- léz Sont|en- fi- léz en u- ne|
 d2 c2 =B4 c2 G2 G4 | A4 F4 E2 F4 E2 | F4 z2 c2 d2 e2 f4 | z4 z2 c2 d2 e2 f2 F2 | %30
w: Pa- te- no- stre, en u-|ne Pa- te- no- *|stre, Sont en- fi- léz,|Sont en- fi- léz Sont|
 A2 c2 c6 c2 c2 c2 | d2 c2 =B4 c2 G2 G4 | A4 F4 E2 F4 E2 | !fermata!F16 |] %34
w: en- fi- léz en u- ne|Pa- te- no- stre, en u-|ne Pa- te- no- *|stre.|
V:2
 z4 A2 G2 E4 A4 | G2 G2 G2 E2 G4 G2 G2 | A4 A4 c4 F2 F2 | D2 E2 F4 A4 F4 | z8 B,8 | C8 D8 | %6
w: Il e- stoit u-|ne re- li- gi- eu- se De|l'or- dre de l'A- vé|Ma- ri- a. Qui d'un|Pa-|ter _|
 z4 A4 F2 E2 G2 G2 | F4 F2 F2 D2 D2 E2 E2 | F4 E2 E2 A2 A2 F2 G2 | A4 A2 A2 F4 E4 | D4 E4 F4 B4 | %11
w: e- stoit tant a- mou-|reu- se, e- stoit tant a- mou-|reu- se, e- stoit tant a- moui-|reu- se Que son gent|corps a- vec le|
 A4 G4 A8 | z2 D2 F2 G2 F4 z4 | z2 C2 D2 E2 F2 D2 A4 | z8 z4 B4 | B2 B2 B4 B4 A2 G2 | %16
w: sien ly- a.|L'a- bes- se vint|de- man- der qu'il y a,|Lors|re- spon- di- rent l'un et|
 C6 C2 C2 =B,2 C4 | C4 G4 A8 | G8 E4 E4 | F2 G2 A2 B2 c4 F4 | G4 E4 D4 A4 | A8 A4 A4 | A8 G8 | %23
w: l'au- tre, l'un et l'au-|tre: Le Pa-|* ter et|l'A- * * * * vé|Ma- ri- a _|_ _ _||
 z4 A4 G2 G2 F4 | z4 A4 G2 G2 A2 A2 | F2 G2 A4 G4 A2 G2 | D2 G2 G4 E4 E4 | F4 D4 C2 B,2 C4 | %28
w: Sont en- fi- léz,|Sont en- fi- léz Sont|en- fi- léz en u- ne|Pa- te- no- stre, en|u- ne Pa- te- no-|
 A,4 A4 G2 G2 F4 | z4 A4 G2 G2 A2 A2 | F2 G2 A4 G4 A2 G2 | D2 G2 G4 E4 E4 | F4 D4 C2 B,2 C4 | %33
w: stre, Sont en- fi- léz,|Sont en- fi- léz Sont|en- fi- léz en u- ne|Pa- te- no- stre, en|u- ne Pa- te- no-|
 !fermata!A,16 |] %34
w: stre.|
V:3
 z4 f2 d2 c4 c4 | c2 c2 =B2 c2 d4 e2 e2 | f6 e2 f4 d2 c2 | B2 B2 c4 z4 c4 | d16 | z8 z4 B4- | %6
w: Il e- stoit u-|ne re- li- gi- eu- se De|l'or- dre de l'A- vé|Ma- ri- a. Qui|d'un|Pa-|
 B4 c8 d4- | d4 c4 =B2 B2 c2 G2 | d4 c2 c2 f2 f2 d2 d2 | e4 f2 f2 c4 c4 | A4 z2 c4 d4 e2- | %11
w: * ter _|_ e- stoit tant a- mou-|reu- se, e- stoit tant a- mou-|reu- se, Que son gent|corps a- vec le|
 e2 f4 e2 f8 | z8 d4 c2 B2 | A4 z4 z4 z2 f2 | e2 f2 d2 e2 f6 f2 | f2 f2 f4 f4 f2 d2 | %16
w: * sien ly- a.|L'a- bes- se|vint de-|man- der qu'il y a, Lors|re- spon- di- rent l'un et|
 f4 e4 f2 d2 f4 | e4 e4 f8 | d8 c8- | c8 c8- | c8 A8 | f12 e4- | e4 f8 e4- | e4 e4 z4 z2 c2 | %24
w: l'au- tre, l'un et l'au-|tre: Le Pa-|* ter|* et|_ l'A-|* vé|_ Ma- ri-|* a Sont|
 d2 e2 f4 z4 c4 | d2 e2 f4 e4 f2 e2 | g2 e2 d4 c6 c2 | c4 B4 G2 F2 G4 | F8 z4 z2 c2 | %29
w: en- fi- léz, Sont|en- fi- léz en u- ne|Pa- te- no- stre, en|u- ne Pa- te- no-|stre, Sont|
 d2 e2 f4 z4 c4 | d2 e2 f4 e4 f2 e2 | g2 e2 d4 c6 c2 | c4 B4 G2 F2 G4 | !fermata!F16 |] %34
w: en- fi- léz, Sont|en- fi- léz en u- ne|Pa- te- no- stre, en|u- ne Pa- te- no-|stre.|
V:4
 z4 F,2 G,2 A,4 F,4 | C,2 C,2 G,2 A,2 G,4 C,4 | z2 F,2 A,4 F,2 F,2 B,2 A,2 | B,2 G,2 F,4 z4 F,4 | %4
w: Il e- stoit u-|ne re- li- gi- eu- se|De l'or- dre de l'A- vé|Ma- ri- a. Qui|
 D,8 z8 | z4 F,8 G,4- | G,4 A,8 G,4 | D,2 D,2 F,2 F,2 G,4 C,4 | z2 D,2 A,2 A,2 F,2 F,2 B,4 | %9
w: d'un|Pa- ter|_ _ e-|stoit tant a- mou- reu- se,|e- stoit tant a- mou- reu-|
 A,4 F,4 F,4 C,4 | D,4 C,4 F,4 G,4 | A,4 C4 F,8 | z8 z2 D,2 F,2 G,2 | F,4 z4 z4 z2 F,2 | %14
w: se, Que son gent|corps a- vec le|sien ly- a.|L'a- bes- se|vint de-|
 G,2 A,2 B,2 G,2 D4 B,4 | B,2 B,2 B,4 B,4 F,2 G,2 | F,4 C,4 F,2 G,2 F,4 | C,4 C,4 F,8 | G,8 A,8 | %19
w: man- der qu'il y a, Lors|re- spon- di- rent l'un et|l'au- tre, l'un et l'au-|tre: Le Pa-|ter _|
 F,8 F,8 | C,8 D,8 | D,8 A,8 | A,8 C8 | A,8 z4 z2 A,2 | G,2 G,2 F,2 A,2 B,2 C2 F,2 F,2 | %25
w: et l'A-|vé _|Ma- *|ri- *|a Sont|en- fi- léz, Sont en- fi- léz Sont|
 D,2 C,2 F,4 C4 F,2 C2 | =B,2 C2 G,4 C,4 C,4 | F,4 B,,4 C,2 D,2 C,4 | F,8 z4 z2 A,2 | %29
w: en- fi- léz en u- ne|Pa- te- no- stre, en|u- ne Pa- te- no-|stre, Sont|
 G,2 G,2 F,2 A,2 B,2 C2 F,2 F,2 | D,2 C,2 F,4 C4 F,2 C2 | B,2 C2 G,4 C,4 C,4 | %32
w: en- fi- léz, Sont en- fi- léz Sont|en- fi- léz en u- ne|Pa- te- no- stre, en|
 F,4 B,,4 C,2 D,2 C,4 | !fermata!F,16 |] %34
w: u- ne Pa- te- no-|stre.|

